dist/images/1_docenteonline.svg

<svg id="Layer_1" xmlns="http://www.w3.org/2000/svg" viewBox="0 0 10 10"><style>.st0{fill:#f8f9fa}</style><title>Icons</title><path class="st0" d="M3 5.2c-.7 0-1.2-.5-1.2-1.2S2.3 2.8 3 2.8s1.2.5 1.2 1.2S3.6 5.2 3 5.2zM3 3c-.6 0-1 .4-1 1s.4 1 1 1 1-.4 1-1-.5-1-1-1zM1.7 8.3c-.1 0-.1 0-.1-.1V7.1c0-.1.1-.1.1-.1s.1 0 .1.1v1.1c.1 0 0 .1-.1.1z"/><path class="st0" d="M.8 8.3c-.1 0-.1 0-.1-.1v-2c0-.5.4-1 1-1h.1c.7.7 1.8.7 2.5 0l1.5-1.5c.1-.1.2-.2.4-.2.3 0 .6.3.6.6 0 .1-.1.3-.2.4l-2 2c-.2.2-.3.5-.3.8v.9c0 .1 0 .1-.1.1H.8zm.8-2.9c-.4 0-.7.4-.7.8v1.9h3.2v-.8c0-.4.2-.7.4-1l1.9-1.9c.1-.1.1-.4 0-.5 0-.1-.1-.2-.2-.2s-.2 0-.3.1L4.4 5.4c-.8.8-2 .8-2.8 0zm4.9-1z"/><path class="st0" d="M8.7 6.7H4.4c-.1 0-.1 0-.1-.1v-.1c0-.1.1-.2.2-.2l1.9-1.9c.1-.1.1-.4 0-.5-.1-.1-.4-.1-.5 0L4.4 5.4C4 5.8 3.5 6 3 6c-.1 0-.1 0-.1-.1v-.8c0-.1 0-.1.1-.1.6 0 1-.4 1-1s-.4-1-1-1c-.1 0-.1 0-.1-.1v-.6c0-.4.3-.6.6-.6h5.2c.4 0 .6.3.6.6V6c.1.4-.2.7-.6.7zm-4.1-.2h4.1c.2 0 .4-.2.4-.4V2.3c0-.2-.2-.4-.4-.4H3.5c-.2 0-.4.2-.4.4v.4c.7.1 1.2.6 1.1 1.3-.1.6-.5 1-1.1 1.1v.6c.4 0 .9-.2 1.2-.5l1.5-1.5c.1-.1.2-.2.4-.2.3 0 .6.3.6.6 0 .1-.1.3-.2.4l-2 2z"/></svg>

<?xml version="1.0" encoding="utf-8"?>
<!-- Generator: Adobe Illustrator 21.1.0, SVG Export Plug-In . SVG Version: 6.00 Build 0)  -->
<svg version="1.1" id="Layer_1" xmlns="http://www.w3.org/2000/svg" xmlns:xlink="http://www.w3.org/1999/xlink" x="0px" y="0px"
	 viewBox="0 0 10 10" style="enable-background:new 0 0 10 10;" xml:space="preserve">
<style type="text/css">
	.st0{fill:#F8F9FA;}
</style>
<title>Icons</title>
<path class="st0" d="M3,5.2C2.3,5.2,1.8,4.7,1.8,4c0-0.7,0.5-1.2,1.2-1.2S4.2,3.3,4.2,4c0,0,0,0,0,0C4.2,4.7,3.6,5.2,3,5.2z M3,3
	C2.4,3,2,3.4,2,4c0,0.6,0.4,1,1,1s1-0.4,1-1c0,0,0,0,0,0C4,3.4,3.5,3,3,3L3,3z"/>
<path class="st0" d="M1.7,8.3c-0.1,0-0.1,0-0.1-0.1c0,0,0,0,0,0V7.1C1.6,7,1.7,7,1.7,7s0.1,0,0.1,0.1c0,0,0,0,0,0v1.1
	C1.9,8.2,1.8,8.3,1.7,8.3C1.7,8.3,1.7,8.3,1.7,8.3z"/>
<path class="st0" d="M0.8,8.3c-0.1,0-0.1,0-0.1-0.1v-2c0-0.5,0.4-1,1-1c0,0,0.1,0,0.1,0c0.7,0.7,1.8,0.7,2.5,0l1.5-1.5l0,0
	C5.9,3.6,6,3.5,6.2,3.5h0c0.3,0,0.6,0.3,0.6,0.6c0,0.1-0.1,0.3-0.2,0.4l0,0l-2,2C4.4,6.7,4.3,7,4.3,7.3v0.9c0,0.1,0,0.1-0.1,0.1
	c0,0,0,0,0,0L0.8,8.3z M1.6,5.4c-0.4,0-0.7,0.4-0.7,0.8v1.9l3.2,0V7.3c0-0.4,0.2-0.7,0.4-1l1.9-1.9l0,0c0.1-0.1,0.1-0.4,0-0.5
	c0,0,0,0,0,0l0,0C6.4,3.8,6.3,3.7,6.2,3.7h0c-0.1,0-0.2,0-0.3,0.1l0,0L4.4,5.4C3.6,6.2,2.4,6.2,1.6,5.4L1.6,5.4z M6.5,4.4L6.5,4.4z"
	/>
<path class="st0" d="M8.7,6.7H4.4c-0.1,0-0.1,0-0.1-0.1c0,0,0,0,0-0.1c0-0.1,0.1-0.2,0.2-0.2l1.9-1.9l0,0c0.1-0.1,0.1-0.4,0-0.5
	c0,0,0,0,0,0c-0.1-0.1-0.4-0.1-0.5,0l0,0L4.4,5.4C4,5.8,3.5,6,3,6c-0.1,0-0.1,0-0.1-0.1c0,0,0,0,0,0V5.1C2.9,5,2.9,5,3,5h0
	c0.6,0,1-0.4,1-1c0-0.6-0.4-1-1-1c-0.1,0-0.1,0-0.1-0.1V2.3c0-0.4,0.3-0.6,0.6-0.6h5.2c0.4,0,0.6,0.3,0.6,0.6v3.7
	C9.4,6.4,9.1,6.7,8.7,6.7z M4.6,6.5h4.1c0.2,0,0.4-0.2,0.4-0.4V2.3c0-0.2-0.2-0.4-0.4-0.4H3.5c-0.2,0-0.4,0.2-0.4,0.4v0.4
	c0.7,0.1,1.2,0.6,1.1,1.3c-0.1,0.6-0.5,1-1.1,1.1v0.6c0.4,0,0.9-0.2,1.2-0.5l1.5-1.5l0,0C5.9,3.6,6,3.5,6.2,3.5h0
	c0.3,0,0.6,0.3,0.6,0.6c0,0.1-0.1,0.3-0.2,0.4l0,0L4.6,6.5L4.6,6.5z"/>
</svg>
